apps/statesvisited/state-images/AZ.svg

<svg height="635" width="1182" xmlns="http://www.w3.org/2000/svg"><path d="m297.41692 312.07563-16.3331 115.22286-40.9813-6.23629-56.7206-33.26021-.8909-3.26663s4.4545-2.37572 4.7515-3.56359c.297-1.18786-.297-8.31505.297-10.98775.5939-2.67269 5.0484-4.75145 5.6423-6.53325.594-1.7818-.2969-3.86056.8909-4.75146 1.1879-.8909 7.4242-1.18786 7.1272-5.93932s-4.1575-7.12719-5.9393-10.98775-1.7818-8.61202-.8909-10.69078.8909-7.42415 1.1878-9.20595c.297-1.7818-1.7817-6.83022 2.6727-8.90899 4.4545-2.07876 8.909 4.15753 10.6908 2.96967 1.7818-1.18787 4.4545-13.36348 4.4545-15.14528 0-1.78179.297-4.15752.297-4.15752z" fill="#ed553b" fill-rule="evenodd" opacity=".9" stroke="#000"/></svg>

<?xml version="1.0" encoding="UTF-8" standalone="no"?>
<!-- Created with Inkscape (http://www.inkscape.org/) -->
<svg
   xmlns:dc="http://purl.org/dc/elements/1.1/"
   xmlns:cc="http://web.resource.org/cc/"
   xmlns:rdf="http://www.w3.org/1999/02/22-rdf-syntax-ns#"
   xmlns:svg="http://www.w3.org/2000/svg"
   xmlns="http://www.w3.org/2000/svg"
   xmlns:xlink="http://www.w3.org/1999/xlink"
   xmlns:sodipodi="http://sodipodi.sourceforge.net/DTD/sodipodi-0.dtd"
   xmlns:inkscape="http://www.inkscape.org/namespaces/inkscape"
   id="svg1923"
   sodipodi:version="0.32"
   inkscape:version="0.44"
   width="1182"
   height="635"
   version="1.0"
   sodipodi:docbase="/Users/amyshore/Desktop"
   sodipodi:docname="usa.svg">
  <metadata
     id="metadata1928">
    <rdf:RDF>
      <cc:Work
         rdf:about="">
        <dc:format>image/svg+xml</dc:format>
        <dc:type
           rdf:resource="http://purl.org/dc/dcmitype/StillImage" />
      </cc:Work>
    </rdf:RDF>
  </metadata>
  <defs
     id="defs1926" />
  <sodipodi:namedview
     inkscape:window-height="752"
     inkscape:window-width="1280"
     inkscape:pageshadow="2"
     inkscape:pageopacity="0.0"
     guidetolerance="10.0"
     gridtolerance="10.0"
     objecttolerance="10.0"
     borderopacity="1.0"
     bordercolor="#666666"
     pagecolor="#ffffff"
     id="base"
     inkscape:zoom="0.59527559"
     inkscape:cx="775.234"
     inkscape:cy="319.32597"
     inkscape:window-x="0"
     inkscape:window-y="22"
     inkscape:current-layer="layer2" />
  <g
     inkscape:groupmode="layer"
     id="layer1"
     inkscape:label="bg"
     style="opacity:1;display:none"
     sodipodi:insensitive="true">
    <image
       xlink:href="ElectoralCollege1996-Large.png"
       sodipodi:absref="/Users/amyshore/Desktop/ElectoralCollege1996-Large.png"
       width="1182"
       height="635"
       id="image1930"
       x="-1.3571358"
       y="1.6798911" />
  </g>
  <g
     inkscape:groupmode="layer"
     id="layer2"
     inkscape:label="vector"
     style="opacity:0.9;display:inline"> <path style="fill:#ed553b;fill-opacity:1;fill-rule:evenodd;stroke:black;stroke-width:1px;stroke-linecap:butt;stroke-linejoin:miter;stroke-opacity:1" d="M 297.41692,312.07563 L 281.08382,427.29849 L 240.10252,421.0622 L 183.38192,387.80199 L 182.49102,384.53536 C 182.49102,384.53536 186.94552,382.15964 187.24252,380.97177 C 187.53952,379.78391 186.94552,372.65672 187.53952,369.98402 C 188.13342,367.31133 192.58792,365.23257 193.18182,363.45077 C 193.77582,361.66897 192.88492,359.59021 194.07272,358.69931 C 195.26062,357.80841 201.49692,357.51145 201.19992,352.75999 C 200.90292,348.00853 197.04242,345.6328 195.26062,341.77224 C 193.47882,337.91168 193.47882,333.16022 194.36972,331.08146 C 195.26062,329.0027 195.26062,323.65731 195.55752,321.87551 C 195.85452,320.09371 193.77582,315.04529 198.23022,312.96652 C 202.68472,310.88776 207.13922,317.12405 208.92102,315.93619 C 210.70282,314.74832 213.37552,302.57271 213.37552,300.79091 C 213.37552,299.00912 213.67252,296.63339 213.67252,296.63339 L 297.41692,312.07563 z " id="path12644" />   </g>
</svg>
